storage/app/icons/phosphoricons/light/note-blank-light.svg

<svg xmlns="http://www.w3.org/2000/svg" fill="currentColor" viewBox="0 0 256 256"><path d="M208 34H48a14 14 0 0 0-14 14v160a14 14 0 0 0 14 14h108.69a13.94 13.94 0 0 0 9.9-4.1l51.31-51.31a13.94 13.94 0 0 0 4.1-9.9V48a14 14 0 0 0-14-14M46 208V48a2 2 0 0 1 2-2h160a2 2 0 0 1 2 2v106h-50a6 6 0 0 0-6 6v50H48a2 2 0 0 1-2-2m120-6.49V166h35.52Z"/></svg>

<svg xmlns="http://www.w3.org/2000/svg" viewBox="0 0 256 256" fill="currentColor"><path d="M208,34H48A14,14,0,0,0,34,48V208a14,14,0,0,0,14,14H156.69a13.94,13.94,0,0,0,9.9-4.1l51.31-51.31a13.94,13.94,0,0,0,4.1-9.9V48A14,14,0,0,0,208,34ZM46,208V48a2,2,0,0,1,2-2H208a2,2,0,0,1,2,2V154H160a6,6,0,0,0-6,6v50H48A2,2,0,0,1,46,208Zm120-6.49V166h35.52Z"/></svg>
